Sources/FrostedUI/Resources/Icons.xcassets/refund12.imageset/refund-12.svg

<svg width="12" height="12" viewBox="0 0 12 12" fill="none" xmlns="http://www.w3.org/2000/svg" data-fui-icon="true">
  <path
    d="M6.04785 0.25C3.95899 0.25 2.56211 1.19601 1.71484 2.33691C1.62101 2.02976 1.33786 1.80566 1 1.80566C0.585787 1.80566 0.25 2.14145 0.25 2.55566V4.36523C0.25 5.09125 0.834799 5.69231 1.57129 5.69238H2.33301C2.7472 5.69238 3.08297 5.35656 3.08301 4.94238C3.08301 4.54546 2.77498 4.22077 2.38477 4.19434C2.83097 3.02361 3.95598 1.75 6.04785 1.75C8.63687 1.75012 10.25 3.6763 10.25 6C10.25 8.3237 8.63687 10.2499 6.04785 10.25C4.49772 10.25 3.21159 9.44564 2.4873 8.36133C2.25724 8.01689 1.79171 7.92423 1.44727 8.1543C1.10283 8.38437 1.01017 8.8499 1.24023 9.19434C2.2216 10.6635 3.95962 11.75 6.04785 11.75C9.55379 11.7499 11.75 9.06078 11.75 6C11.75 2.93922 9.55379 0.250119 6.04785 0.25ZM5.99609 2.25C5.58222 2.25235 5.24808 2.58999 5.25 3.00391V3.10645C4.31744 3.38317 3.75026 4.15794 3.75 4.92187C3.75004 5.24407 3.82863 5.54581 3.99512 5.80859C4.15831 6.06574 4.37914 6.24301 4.59375 6.36719C4.99025 6.59629 5.48934 6.70557 5.8252 6.78613C6.22749 6.88265 6.47491 6.95385 6.63281 7.05273C6.6953 7.09201 6.71678 7.12059 6.72461 7.13379C6.73089 7.1446 6.74995 7.18132 6.75 7.27441C6.74556 7.28522 6.73001 7.30894 6.68555 7.3418C6.5994 7.40534 6.39435 7.49991 6.00391 7.5C5.91491 7.49993 5.71541 7.4725 5.49414 7.39648C5.2681 7.31872 5.11287 7.22227 5.04199 7.14844C4.75567 6.84943 4.28068 6.83886 3.98145 7.125C3.68263 7.41118 3.67233 7.88533 3.95801 8.18457C4.26214 8.50238 4.67032 8.69872 5.00684 8.81445C5.08675 8.84191 5.16876 8.86687 5.25 8.88867V8.99609C5.24808 9.41001 5.58222 9.74765 5.99609 9.75C6.40999 9.75185 6.74772 9.41779 6.75 9.00391V8.91113C7.60544 8.704 8.24988 8.13406 8.25 7.27441C8.24995 6.9479 8.17546 6.64295 8.01758 6.37402C7.86132 6.10821 7.64725 5.91774 7.42969 5.78125C7.02537 5.52788 6.52177 5.41136 6.1748 5.32812C5.76148 5.22897 5.50941 5.16405 5.34375 5.06836C5.28136 5.03214 5.2648 5.00814 5.2627 5.00488C5.26172 5.00351 5.25895 4.99976 5.25684 4.99219C5.25422 4.98241 5.25002 4.95986 5.25 4.92187C5.25032 4.91796 5.25303 4.8922 5.27246 4.85059C5.29314 4.80634 5.32891 4.7532 5.38379 4.70215C5.48653 4.60678 5.67718 4.50008 6.00391 4.5C6.06802 4.50019 6.27973 4.53361 6.50586 4.62891C6.61138 4.67344 6.69733 4.72255 6.75781 4.76855C6.80516 4.80469 6.82463 4.82871 6.8291 4.83496C7.01435 5.205 7.4647 5.35563 7.83496 5.1709C8.20506 4.98572 8.35554 4.53532 8.1709 4.16504C7.92416 3.67188 7.4364 3.39271 7.08887 3.24609C6.97908 3.19982 6.86394 3.16025 6.75 3.12598V2.99609C6.74771 2.58221 6.40999 2.24814 5.99609 2.25Z"
    fill="currentColor"
  />
</svg>

<svg xmlns="http://www.w3.org/2000/svg" width="12" height="12" fill="none" data-fui-icon="true" viewBox="0 0 12 12"><path fill="currentColor" d="M6.048.25c-2.089 0-3.486.946-4.333 2.087a.748.748 0 0 0-1.465.219v1.81c0 .725.585 1.326 1.321 1.326h.762a.75.75 0 0 0 .052-1.498C2.83 3.024 3.956 1.75 6.048 1.75c2.589 0 4.202 1.926 4.202 4.25s-1.613 4.25-4.202 4.25a4.27 4.27 0 0 1-3.56-1.889.75.75 0 1 0-1.248.833 5.77 5.77 0 0 0 4.808 2.556c3.506 0 5.702-2.69 5.702-5.75S9.554.25 6.048.25m-.052 2a.75.75 0 0 0-.746.754v.102c-.933.277-1.5 1.052-1.5 1.816 0 .322.079.624.245.887.163.257.384.434.599.558.396.23.895.339 1.231.42.402.096.65.167.808.266.062.039.084.068.092.08.006.012.025.048.025.141-.004.011-.02.035-.064.068-.087.063-.292.158-.682.158-.09 0-.289-.027-.51-.104-.226-.077-.381-.174-.452-.248a.75.75 0 0 0-1.084 1.037c.304.317.712.514 1.049.63q.12.04.243.074v.107a.75.75 0 0 0 1.5.008V8.91c.855-.207 1.5-.777 1.5-1.637 0-.326-.075-.631-.232-.9a1.75 1.75 0 0 0-.588-.593c-.405-.253-.908-.37-1.255-.453-.414-.099-.666-.164-.831-.26a.24.24 0 0 1-.081-.063q-.002-.001-.006-.013a.3.3 0 0 1-.007-.07c0-.004.003-.03.022-.071a.5.5 0 0 1 .112-.149c.103-.095.293-.202.62-.202a1.6 1.6 0 0 1 .754.269c.047.036.067.06.071.066a.75.75 0 0 0 1.342-.67c-.247-.493-.735-.772-1.082-.919a3 3 0 0 0-.339-.12v-.13a.75.75 0 0 0-.754-.746"/></svg>
